openframe-frontend-core/src/components/icons-v2/brand-logos/authentik-logo.svg

<svg width="24" height="24" viewBox="0 0 24 24" fill="none" xmlns="http://www.w3.org/2000/svg">
<path d="M13.6323 7.25598H12.9326V9.31316H13.6323V7.25598Z" fill="#FD4B2D"/>
<path d="M15.4526 7.16968H14.7529V8.7785H15.4526V7.16968Z" fill="#FD4B2D"/>
<path d="M4.55299 9.51904C4.09338 9.51936 3.64239 9.64741 3.24768 9.88965C2.85297 10.1319 2.52918 10.4793 2.31055 10.8952H3.49859C4.0239 10.4292 4.78707 10.293 5.33885 10.8952H6.59497C6.10412 10.2134 5.36743 9.51904 4.55299 9.51904Z" fill="#FD4B2D"/>
<path d="M6.24756 12.1367C4.61111 15.6578 1.74208 12.6555 3.4962 10.8954H2.31026C1.37899 12.5647 2.66579 14.8156 4.5527 14.7646C6.0118 14.7646 7.21665 12.5362 7.21665 12.1419C7.21665 11.9689 6.98131 11.4354 6.59258 10.8954H5.33646C5.75293 11.2841 6.11602 11.8505 6.24756 12.1367Z" fill="#FD4B2D"/>
<path d="M21.9991 7.23103V16.5268C21.9981 17.3836 21.6668 18.205 21.0779 18.8108C20.489 19.4166 19.6905 19.7574 18.8577 19.7583H17.5247V16.5934H11.158V19.7583H9.82494C8.99215 19.7574 8.19372 19.4166 7.60481 18.8108C7.01589 18.205 6.6846 17.3836 6.68359 16.5268V13.6036H16.7788V8.01274H11.9039V11.1538H6.68359V7.23103C6.6835 7.10704 6.69066 6.98316 6.70503 6.86006C6.72099 6.71327 6.74683 6.56779 6.78235 6.42467C6.79412 6.37884 6.80715 6.33301 6.82018 6.28848C6.82292 6.27686 6.82643 6.26545 6.83068 6.25432C6.83783 6.23141 6.84455 6.21109 6.85169 6.18817C6.85884 6.16526 6.86724 6.14494 6.87523 6.12159C6.88321 6.09824 6.89288 6.07187 6.90212 6.04765C6.91137 6.02344 6.92229 5.99966 6.93154 5.97545C7.00992 5.78495 7.10545 5.60242 7.21689 5.43024L7.22067 5.42549C7.24883 5.38225 7.27824 5.33901 7.3085 5.29837C7.33456 5.26335 7.36019 5.22963 7.38625 5.1959C7.4123 5.16218 7.44844 5.11981 7.48038 5.08349C7.51232 5.04717 7.54258 5.01215 7.57536 4.97842L7.57872 4.97453C7.59511 4.95551 7.61276 4.93821 7.63167 4.92005C7.74805 4.80332 7.87295 4.69592 8.00527 4.59881C8.04057 4.572 8.07798 4.54693 8.1158 4.52142C8.15362 4.49591 8.19985 4.46694 8.24187 4.44057C8.32592 4.39084 8.40997 4.34501 8.49402 4.30394C8.52134 4.29054 8.54949 4.27713 8.57807 4.26546C8.69754 4.21153 8.82039 4.16588 8.94579 4.12883C8.99411 4.11413 9.04202 4.10073 9.09161 4.08862C9.11473 4.08257 9.13826 4.07652 9.16305 4.07176C9.30327 4.04071 9.44535 4.01933 9.58834 4.00777L9.65054 4.00431C9.66105 4.00431 9.67071 4.00431 9.68122 4.00431C9.72787 4.00172 9.7762 4.00085 9.82452 4.00085H18.8577C18.9061 4.00085 18.9544 4.00085 19.001 4.00431C19.0116 4.00431 19.0212 4.00431 19.0317 4.00431L19.0939 4.00777C19.2369 4.01933 19.379 4.04071 19.5192 4.07176C19.544 4.07652 19.5675 4.08257 19.5907 4.08862C19.6402 4.10073 19.6882 4.11413 19.7365 4.12883C19.8619 4.16588 19.9847 4.21153 20.1042 4.26546C20.1311 4.27713 20.1592 4.29054 20.1882 4.30394C20.2748 4.34501 20.3563 4.39041 20.4404 4.44057C20.4824 4.46694 20.5244 4.49375 20.5665 4.52142C20.6085 4.54909 20.6417 4.572 20.677 4.59881C20.8313 4.71174 20.9753 4.8388 21.1073 4.97842C21.1401 5.01215 21.172 5.04717 21.2023 5.08349C21.2326 5.11981 21.2658 5.15829 21.2964 5.1959C21.3271 5.23352 21.3481 5.26335 21.3742 5.29837C21.4044 5.34161 21.4339 5.38484 21.462 5.42549L21.4658 5.43024C21.5772 5.60242 21.6728 5.78495 21.7511 5.97545C21.7604 5.99966 21.7709 6.02344 21.7806 6.04765C21.7902 6.07187 21.7982 6.09608 21.8075 6.12159C21.8167 6.1471 21.8238 6.16482 21.831 6.18817C21.8381 6.21152 21.8449 6.23141 21.852 6.25432C21.8563 6.26545 21.8598 6.27686 21.8625 6.28848C21.8755 6.33172 21.8886 6.37884 21.9003 6.42467C21.9359 6.56779 21.9617 6.71327 21.9777 6.86006C21.992 6.98316 21.9992 7.10704 21.9991 7.23103Z" fill="#FD4B2D"/>
<path d="M21.4651 5.43025H7.21875C7.50578 4.99034 7.89355 4.62979 8.34792 4.38038C8.80228 4.13096 9.30929 4.00033 9.82428 4H18.8596C19.3746 4.00033 19.8816 4.13096 20.336 4.38038C20.7903 4.62979 21.1781 4.99034 21.4651 5.43025Z" fill="#FD4B2D"/>
<path d="M21.9783 6.86043H6.70312C6.75965 6.34803 6.93584 5.85732 7.21667 5.43018H21.4631C21.7445 5.85716 21.9213 6.34788 21.9783 6.86043Z" fill="#FD4B2D"/>
<path d="M21.9998 7.23095V8.29067H16.7786V8.01266H11.9038V8.29067H6.68262V7.23095C6.68239 7.10697 6.68941 6.9831 6.70364 6.85999H21.9788C21.993 6.9831 22 7.10697 21.9998 7.23095Z" fill="#FD4B2D"/>
<path d="M11.905 8.29077H6.68262V9.72146H11.905V8.29077Z" fill="#FD4B2D"/>
<path d="M21.9993 8.29077H16.7769V9.72146H21.9993V8.29077Z" fill="#FD4B2D"/>
<path d="M11.905 9.7218H6.68262V11.1516H11.905V9.7218Z" fill="#FD4B2D"/>
<path d="M21.9993 9.7218H16.7769V11.1516H21.9993V9.7218Z" fill="#FD4B2D"/>
</svg>

<svg xmlns="http://www.w3.org/2000/svg" width="24" height="24" fill="none" viewBox="0 0 24 24">
  <path fill="#FD4B2D" d="M13.632 7.256h-.7v2.057h.7V7.256Zm1.821-.086h-.7v1.608h.7V7.17Zm-10.9 2.349c-.46 0-.91.128-1.305.37-.395.243-.719.59-.937 1.006h1.188c.525-.466 1.288-.602 1.84 0h1.256c-.49-.682-1.228-1.376-2.042-1.376Zm1.695 2.618c-1.637 3.52-4.506.518-2.752-1.242H2.31c-.931 1.67.356 3.92 2.243 3.87 1.459 0 2.664-2.229 2.664-2.623 0-.173-.236-.707-.624-1.247H5.336c.417.389.78.955.912 1.242Z"/>
  <path fill="#FD4B2D" d="M22 7.231v9.296a3.283 3.283 0 0 1-.922 2.284 3.1 3.1 0 0 1-2.22.947h-1.333v-3.165h-6.367v3.165H9.825a3.1 3.1 0 0 1-2.22-.947 3.283 3.283 0 0 1-.921-2.284v-2.923h10.095V8.013h-4.875v3.14h-5.22V7.232a3.28 3.28 0 0 1 .147-.977l.02-.066.024-.066.027-.074.03-.073c.078-.19.173-.373.285-.545l.004-.005a2.483 2.483 0 0 1 .165-.23c.026-.033.062-.075.094-.112l.095-.105.004-.003a3.207 3.207 0 0 1 .427-.376c.035-.027.072-.052.11-.078l.126-.08a3.602 3.602 0 0 1 .336-.176 2.87 2.87 0 0 1 .585-.193c.14-.031.282-.053.425-.064l.063-.004h.03c.047-.002.095-.003.144-.003h9.033c.048 0 .096 0 .143.003h.03l.063.004a3.135 3.135 0 0 1 1.01.257l.084.039a2.988 2.988 0 0 1 .489.295 3.163 3.163 0 0 1 .525.484c.03.037.064.075.094.113.031.038.052.067.078.102l.088.127.004.005c.111.172.207.355.285.545l.03.073c.01.024.017.048.027.074l.023.066.021.066a3.273 3.273 0 0 1 .147.977Z"/>
  <path fill="#FD4B2D" d="M21.465 5.43H7.22c.287-.44.675-.8 1.129-1.05A3.07 3.07 0 0 1 9.824 4h9.036a3.07 3.07 0 0 1 1.476.38c.454.25.842.61 1.13 1.05Zm.513 1.43H6.703a3.254 3.254 0 0 1 .514-1.43h14.246c.281.427.458.918.515 1.43Z"/>
  <path fill="#FD4B2D" d="M22 7.23v1.06h-5.221v-.277h-4.875v.278H6.683V7.23c0-.124.006-.248.02-.371H21.98c.014.123.021.247.02.37Z"/>
  <path fill="#FD4B2D" d="M11.905 8.29H6.683v1.431h5.222v-1.43ZM22 8.29h-5.223v1.431h5.222v-1.43ZM11.905 9.722H6.683v1.43h5.222v-1.43Zm10.095 0h-5.223v1.43h5.222v-1.43Z"/>
</svg>
